public/avatar/item0/3.svg

<svg xmlns:xlink="http://www.w3.org/1999/xlink" height="58.65" width="49.15" xmlns="http://www.w3.org/2000/svg"><use height="15.55" transform="translate(12.95 23.5)" width="27.8" xlink:href="#a"/><defs><g id="a"><path d="M2.65 6.5q4.65.8 9.75 6.4-1.2 2.6-3.6 4.1-2.35 1.5-4.95.45-1.5-.6-2.65-1.45-2.35-1.8-1.65-4.7.65-2.85 3.1-4.8" fill="#857445" fill-rule="evenodd" transform="translate(11.15 -5.4)"/><path d="M2.65 6.5Q.2 8.45-.45 11.3q-.7 2.9 1.65 4.7 1.15.85 2.65 1.45Q6.45 18.5 8.8 17q2.4-1.5 3.6-4.1-5.1-5.6-9.75-6.4Z" fill="none" stroke="#665835" stroke-linecap="round" stroke-linejoin="round" transform="translate(11.15 -5.4)"/><path d="m1.8 12.05.8-1.4q-6.25-3.1-13.25-4.75M2.6 10.65l.15-.3.5-.7M7.7 15.6l.8-1.65.4-.6m-.25 1.25q4 2.6 7.5 5.85" fill="none" stroke="#333" stroke-linecap="round" stroke-linejoin="round" transform="translate(11.15 -5.4)"/><path d="m2.65 12.6.8-1.4.15-.3.5-.7" fill="none" stroke="#b39f6c" stroke-linecap="round" stroke-linejoin="round" transform="translate(11.15 -5.4)"/></g></defs></svg>

<?xml version="1.0" encoding="UTF-8" standalone="no"?>
<svg xmlns:xlink="http://www.w3.org/1999/xlink" height="58.65px" width="49.15px" xmlns="http://www.w3.org/2000/svg">
  <g transform="matrix(1.0, 0.0, 0.0, 1.0, 24.1, 18.1)">
    <use height="15.55" transform="matrix(1.0, 0.0, 0.0, 1.0, -11.15, 5.4)" width="27.8" xlink:href="#shape0"/>
  </g>
  <defs>
    <g id="shape0" transform="matrix(1.0, 0.0, 0.0, 1.0, 11.15, -5.4)">
      <path d="M2.65 6.5 Q7.3 7.3 12.4 12.9 11.2 15.5 8.8 17.0 6.45 18.5 3.85 17.45 2.35 16.85 1.2 16.0 -1.15 14.2 -0.45 11.3 0.2 8.45 2.65 6.5" fill="#857445" fill-rule="evenodd" stroke="none"/>
      <path d="M2.65 6.5 Q0.2 8.45 -0.45 11.3 -1.15 14.2 1.2 16.0 2.35 16.85 3.85 17.45 6.45 18.5 8.8 17.0 11.2 15.5 12.4 12.9 7.3 7.3 2.65 6.5 Z" fill="none" stroke="#665835" stroke-linecap="round" stroke-linejoin="round" stroke-width="1.0"/>
      <path d="M1.8 12.05 L2.6 10.65 Q-3.65 7.55 -10.65 5.9 M2.6 10.65 L2.75 10.35 3.25 9.65 M7.7 15.6 L8.5 13.95 8.9 13.35 M8.65 14.6 Q12.65 17.2 16.15 20.45" fill="none" stroke="#333333" stroke-linecap="round" stroke-linejoin="round" stroke-width="1.0"/>
      <path d="M2.65 12.6 L3.45 11.2 3.6 10.9 4.1 10.2" fill="none" stroke="#b39f6c" stroke-linecap="round" stroke-linejoin="round" stroke-width="1.0"/>
    </g>
  </defs>
</svg>
